X:1
T:Serenade
T:Serenade
T:for 4 Solostemmer
T:Kjerulf
C:Kjerulf
%%score [ 1 2 3 4 ]
L:1/8
Q:1/4=72
M:4/4
K:Eb
V:1 treble-8 nm="T1"
V:2 treble-8 nm="T2"
V:3 bass nm="B1"
V:4 bass nm="B2"
V:1
"^Andante"!mf! C2 | !fermata!G6!f! c2 | !fermata!g6!mf! g2 | f3 e!>(! d2 c2!>)! | B4 B3 B | %5
w: 1.Vaagn|op! Vaagn|op! Vaagn|op, vaagn op, du|Fa- gre! som|
w: 2.Vaagn|op! Vaagn|op! Vaagn|op, du slan- ke|Lil- jeg! vaagn|
 c3!<(! c f3!<)! f | (f2 gf ed)!>(! (cB)!>)! | B2 (=B B) c2 ^c2 | d4 d2 f2 | %9
w: dröm- mer södt der-|in- * * * * de. _|San- gen og Længs- len|fla- gre helt|
w: op i To- ne|ström- * * * * me, _|lad din _ un- ge|Tan- ke paa|
 (f2 e) c!>(! d3 c!>)! | c2 =B2 z2!p! B2 |!<(! =B3 c!<)! e3 d |!>(! d2 c2!>)! z2!mf! =e2 | %13
w: sil- * de den- ne-|sin- de og|kan ei Hvi- le|fin- de og|
w: stil- * le Vo- ver|svöm- me, og|fa- ste- re af|Dröm- me snart|
!<(! =e2 f2!<)! a3!>(! g | f4!>)! z2 g2 | f2 e2!>(! d2 c2!>)! | B4 B2 g2 |!<(! f2 e2!<)! a2 g2 | %18
w: vil ei slum- re|ind, för|den din Sans har|kys- set, der|hvi- ler slum- mer-|
w: at- ter bin- des|du; men|Held, Held den, hvis|Bil- led er|i din Tan- ke|
 (^f2!>(! =f2) =e2!>)! _e2 | d2 c2 !>!g3 =B | c6 :|!p!"^Efter V. 2." C2 | !fermata!G6!mf! c2 | %23
w: dys- * set, og|naa- et til det|Sind.|Dröm|södt, dröm|
w: stil- * let og|di- ne Dröm- me|nu.|||
 !fermata!g6 c2 | !>!g3 f (e3 d) | c8 | c6 |] %27
w: södt! Dröm|södt du Fa- *|gre!|_|
w: ||||
V:2
!mf! C2 | !fermata!G6!f! G2 | !fermata!=B6!mf! G2 | =B3 c!>(! F2 E2!>)! | A4 G3 G | %5
w: 1.Vaagn|op! Vaagn|op! Vaagn|op, vaagn op, du|Fa- gre! som|
w: 2.Vaagn|op! Vaagn|op! Vaagn|op, du slan- ke|Lil- jeg! vaagn|
 A3!<(! A c3!<)! _c | (B4- B2)!>(! A2!>)! | G2 (G G) G2 =A2 | =A4 G2 d2 | (d2 c) =A!>(! A3 d!>)! | %10
w: dröm- mer södt der-|in- * de.|San- gen og Længs- len|fla- gre helt|sil- * de den- ne-|
w: op i To- ne|ström- * me,|lad din _ un- ge|Tan- ke paa|stil- * le Vo- ver|
 d2 d2 z2!p! D2 |!<(! D3 E!<)! G3 A |!>(! G2 G2!>)! z2!mf! G2 |!<(! G2 A2!<)! c3!>(! B | %14
w: sin- de og|kan ei Hvi- le|fin- de og|vil ei slum- re|
w: svöm- me, og|fa- ste- re af|Dröm- me snart|at- ter bin- des|
 A4!>)! z2 G2 | G2 G2!>(! =B2 c2!>)! | A4 G2 G2 |!<(! G2 G2!<)! =B2 e2 | (c2!>(! d2) G2!>)! G2 | %19
w: ind, för|den din Sans har|kys- set, der|hvi- ler slum- mer-|dys- * set, og|
w: du; men|Held, Held den, hvis|Bil- led er|i din Tan- ke|stil- * let og|
 c2 c2 !>!c3 G | G6 :|!p! C2 | !fermata!G6!mf! c2 | !fermata!e6 c2 | c2 c2 =B4 | G3 _B (=A2 _A2) | %26
w: naa- et til det|Sind.|Dröm|södt, dröm|södt! Dröm|södt du Fa-|gre, du Fa- *|
w: di- ne Dröm- me|nu.||||||
 G6 |] %27
w: gre!|
w: |
V:3
!mf! C,2 | !fermata!G,6!f! E,2 | !fermata!D,6!mf! E,2 | G,3 G,!>(! =B,,2 C,2!>)! | %4
w: 1.Vaagn|op! Vaagn|op! Vaagn|op, vaagn op, du|
w: 2.Vaagn|op! Vaagn|op! Vaagn|op, du slan- ke|
 (D,2 E,F,) G,3 G, | F,3!<(! F, A,3!<)! A, | (A,4- A,2)!>(! F,2!>)! | G,2 (G, G,) G,2 G,2 | %8
w: Fa- * * gre! som|dröm- mer södt der-|in- * de.|San- gen og Længs- len|
w: Lil- * * jeg! vaagn|op i To- ne|ström- * me,|lad din _ un- ge|
 ^F,4 G,2 _A,2 | G,3 G,!>(! G,3 ^F,!>)! | =A,2 G,2 z2!p! G,2 |!<(! G,3 G,!<)! G,3 F, | %12
w: fla- gre helt|sil- de den- ne-|sin- de og|kan ei Hvi- le|
w: Tan- ke paa|stil- le Vo- ver|svöm- me, og|fa- ste- re af|
!>(! F,2 E,2!>)! z2!mf! C2 |!<(! C2 C2!<)! C3!>(! _D | C4!>)! z2 C2 | =B,2 C2!>(! F,2 E,2!>)! | %16
w: fin- de og|vil ei slum- re|ind, för|den din Sans har|
w: Dröm- me snart|at- ter bin- des|du; men|Held, Held den, hvis|
 (D,2 E,F,) G,2 B,2 |!<(! =B,2 C2!<)! F,2 G,2 | (=A,2!>(! =B,2) D2!>)! C2 | A,2 A,2 !>!G,3 F, | %20
w: kys- * * set, der|hvi- ler slum- mer-|dys- * set, og|naa- et til det|
w: Bil- * * led er|i din Tan- ke|stil- * let og|di- ne Dröm- me|
 E,6 :|!p! C,2 | !fermata!G,6!mf! C2 | !fermata!B,6 (CB,) | A,2 A,2 (G,3 F,) | =E,3 G, !>!F,4 | %26
w: Sind.|Dröm|södt, dröm|södt! Dröm _|södt du Fa- *|gre, du Fa-|
w: nu.||||||
 =E,6 |] %27
w: gre!|
w: |
V:4
!mf! C,2 | !fermata!G,6!f! C,2 | !fermata!G,,6!mf! E,2 | D,3 C,!>(! G,,2 A,,2!>)! | %4
w: 1.Vaagn|op! Vaagn|op! Vaagn|op, vaagn op, du|
w: 2.Vaagn|op! Vaagn|op! Vaagn|op, du slan- ke|
 (B,,2 C,D,) E,3 E, | E,3!<(! E, E,3!<)! E, | (D,4 F,2)!>(! D,2!>)! | E,2 (E, E,) E,2 E,2 | %8
w: Fa- * * gre! som|dröm- mer södt der-|in- * de.|San- gen og Længs- len|
w: Lil- * * jeg! vaagn|op i To- ne|ström- * me,|lad din _ un- ge|
 (D,2 C,2) B,,2 =B,,2 | C,3 E,!>(! D,3 D,!>)! | G,2 G,2 z2!p! G,,2 |!<(! G,,3 G,,!<)! =B,,3 B,, | %12
w: fla- * gre helt|sil- de den- ne-|sin- de og|kan ei Hvi- le|
w: Tan- * ke paa|stil- le Vo- ver|svöm- me, og|fa- ste- re af|
!>(! C,2 C,2!>)! z2!mf! C,2 |!<(! C,2 C,2!<)! =E,3!>(! E, | F,4!>)! z2 _E,2 | %15
w: fin- de og|vil ei slum- re|ind, för|
w: Dröm- me snart|at- ter bin- des|du; men|
 D,2 C,2!>(! G,,2 A,,2!>)! | (B,,2 C,D,) E,2 E,2 |!<(! D,2 C,2!<)! D,2 E,2 | %18
w: den din Sans har|kys- * * set, der|hvi- ler slum- mer-|
w: Held, Held den, hvis|Bil- * * led er|i din Tan- ke|
 (D,2!>(! G,,2) C,2!>)! C,2 | F,2 F,2 !>!E,3 D, | C,6 :|!p! C,2 | !fermata!G,6!mf! A,2 | %23
w: dys- * set, og|naa- et til det|Sind.|Dröm|södt, dröm|
w: stil- * let og|di- ne Dröm- me|nu.|||
 !fermata!E,6 (A,G,) | F,2 F,2 (G,2 G,,2) | C,8- | C,6 |] %27
w: södt! Dröm *|södt du Fa- *|gre!|_|
w: ||||

